X: 1
T: Fenteril
M: 4/4
L: 1/8
R: reel
K: Amix
ve3d (ce)ae|(ce)ae (fe)dc|(BA)G(A BA)GA|FGA(B cB)cd|
e3d (ce)ae|(ce)ae (fe)dc|(BA)G(A BA)GA|FF(AB) A4:|
|:vEAcA EAcA|FAdA FAdA|vGu(ABA) BAG(B|Ad)c(B {d}BA)GF|
EAcA EAcA|FAdA FAdA|G(ABA) BAGB|A4A4:|
